X: 7943
T:Toss the Feathers
R:Reel
O:Ireland
M:4/4
K:Em
EB (3BBB dBBA|EBBA FEFA|B>E E/E/E B2AB\
|1 defe dBAF :|2 defe dBA2 ::
e4 e3e|fede fee2|gebe gebe|fede feed|
Beed (3efe de|fede fa a/a/a|\
b3f a2af|egfe dBAF:|
